svg/Outline/play-forward-circle.svg

<svg viewBox="0 0 24 24" xmlns="http://www.w3.org/2000/svg" width="24" height="24"><path d="M13.33 7.77c.3-.02.56.08.78.2q.33.17.8.48l3.12 1.97q.41.26.69.47c.18.14.37.31.48.57l.05.13q.15.48-.05.95c-.1.26-.3.43-.48.57q-.28.21-.7.47l-3.11 1.97q-.47.3-.8.48c-.22.12-.49.22-.78.2a1.4 1.4 0 0 1-1.01-.55 1.5 1.5 0 0 1-.25-.77q-.04-.37-.03-.93v-.59l-.28.19-3.11 1.97q-.47.3-.8.48c-.22.12-.5.22-.79.2q-.62-.06-1-.55a1.5 1.5 0 0 1-.26-.77q-.02-.37-.02-.93v-3.96q0-.55.02-.93c.03-.24.08-.53.26-.77q.38-.5 1-.55c.3-.02.57.08.78.2q.35.17.8.48l3.12 1.97.28.18v-.58q0-.55.03-.93c.02-.24.07-.53.25-.77q.38-.5 1-.55"/><path fill-rule="evenodd" d="M12 1A11 11 0 1 1 12 23A11 11 0 0 1 12 1M12 2.5A9.5 9.5 0 1 0 12 21.5A9.5 9.5 0 0 0 12 2.5" clip-rule="evenodd"/></svg>

<svg viewBox="0 0 24 24" xmlns="http://www.w3.org/2000/svg" width="24" height="24"><path d="M13.33 7.77C13.63 7.75 13.89 7.85 14.11 7.97Q14.44 8.14 14.91 8.45L18.03 10.42Q18.44 10.68 18.72 10.89C18.9 11.03 19.09 11.2 19.2 11.46L19.25 11.59Q19.4 12.07 19.2 12.54C19.1 12.8 18.9 12.97 18.72 13.11Q18.44 13.32 18.02 13.58L14.91 15.55Q14.44 15.85 14.11 16.03C13.89 16.15 13.62 16.25 13.33 16.23A1.4 1.4 0 0 1 12.32 15.68A1.5 1.5 0 0 1 12.07 14.91Q12.03 14.54 12.04 13.98L12.04 13.39L8.65 15.55Q8.18 15.85 7.85 16.03C7.63 16.15 7.35 16.25 7.06 16.23Q6.44 16.17 6.06 15.68A1.5 1.5 0 0 1 5.8 14.91Q5.78 14.54 5.78 13.98L5.78 10.02Q5.78 9.47 5.8 9.09C5.83 8.85 5.88 8.56 6.06 8.32Q6.44 7.82 7.06 7.77C7.36 7.75 7.63 7.85 7.84 7.97Q8.19 8.14 8.64 8.45L12.04 10.6L12.04 10.02Q12.04 9.47 12.07 9.09C12.09 8.85 12.14 8.56 12.32 8.32Q12.7 7.82 13.32 7.77"/><path fill-rule="evenodd" d="M12 1A11 11 0 1 1 12 23A11 11 0 0 1 12 1M12 2.5A9.5 9.5 0 1 0 12 21.5A9.5 9.5 0 0 0 12 2.5" clip-rule="evenodd"/></svg>
